Numix-GalliumOS/32/actions/stock_task-assigned.svg

<?xml version="1.0" encoding="UTF-8" standalone="no"?>
<svg
   xmlns:dc="http://purl.org/dc/elements/1.1/"
   xmlns:cc="http://creativecommons.org/ns#"
   xmlns:rdf="http://www.w3.org/1999/02/22-rdf-syntax-ns#"
   xmlns:svg="http://www.w3.org/2000/svg"
   xmlns="http://www.w3.org/2000/svg"
   xmlns:sodipodi="http://sodipodi.sourceforge.net/DTD/sodipodi-0.dtd"
   xmlns:inkscape="http://www.inkscape.org/namespaces/inkscape"
   viewBox="0 0 32 32"
   id="svg2"
   version="1.1"
   inkscape:version="0.91 r13725"
   sodipodi:docname="stock_task-assigned.svg"
   width="32"
   height="32">
  <metadata
     id="metadata98">
    <rdf:RDF>
      <cc:Work
         rdf:about="">
        <dc:format>image/svg+xml</dc:format>
        <dc:type
           rdf:resource="http://purl.org/dc/dcmitype/StillImage" />
        <dc:title></dc:title>
      </cc:Work>
    </rdf:RDF>
  </metadata>
  <sodipodi:namedview
     pagecolor="#ffffff"
     bordercolor="#666666"
     borderopacity="1"
     objecttolerance="10"
     gridtolerance="10"
     guidetolerance="10"
     inkscape:pageopacity="0"
     inkscape:pageshadow="2"
     inkscape:window-width="1262"
     inkscape:window-height="482"
     id="namedview96"
     showgrid="true"
     inkscape:zoom="9.833334"
     inkscape:cx="20.486313"
     inkscape:cy="13.488242"
     inkscape:window-x="8"
     inkscape:window-y="532"
     inkscape:window-maximized="0"
     inkscape:current-layer="svg2"
     inkscape:object-nodes="true"
     inkscape:snap-smooth-nodes="true">
    <inkscape:grid
       type="xygrid"
       id="grid4360" />
  </sodipodi:namedview>
  <defs
     id="defs4">
    <path
       id="SVGCleanerId_0"
       d="m 14,12 20,0 c 1.105,0 2,0.895 2,2 l 0,20 c 0,1.105 -0.895,2 -2,2 l -20,0 c -1.105,0 -2,-0.895 -2,-2 l 0,-20 c 0,-1.105 0.895,-2 2,-2 m 0,0"
       inkscape:connector-curvature="0" />
    <clipPath
       id="clipPath-543229327">
      <g
         transform="translate(0,-1004.3622)"
         id="g3857">
        <path
           inkscape:connector-curvature="0"
           d="m -24,13 c 0,1.105 -0.672,2 -1.5,2 -0.828,0 -1.5,-0.895 -1.5,-2 0,-1.105 0.672,-2 1.5,-2 0.828,0 1.5,0.895 1.5,2 z"
           transform="matrix(15.333333,0,0,11.5,414.99999,878.8622)"
           style="fill:#1890d0"
           id="path3859" />
      </g>
    </clipPath>
  </defs>
  <path
     sodipodi:nodetypes="cssssssc"
     id="path3893"
     style="fill:#e6b07f;fill-opacity:1;fill-rule:evenodd;stroke:none"
     d="m 26,5.9999982 c 2,0 2,0 2,2.0000001 L 28,28 c 0,2 0,2 -2,2 L 5.9999981,30 C 3.999998,30 3.999998,30 3.999998,28 l 0,-20.0000017 c 0,-2.0000001 0,-2.0000001 2.0000001,-2.0000001"
     inkscape:connector-curvature="0" />
  <path
     sodipodi:nodetypes="cccc"
     id="path3895"
     style="fill:#ffffff;fill-opacity:1;fill-rule:nonzero;stroke:none"
     d="m 24,5.9999982 -16.0000017,0 L 7.9999983,26 24,26"
     inkscape:connector-curvature="0" />
  <path
     style="fill:#aaaaaa;fill-opacity:1;fill-rule:nonzero;stroke:none"
     d="m 9.9999982,1.9999978 0,6.0000005 12.0000018,0 0,-6.0000005 z"
     id="path3897"
     inkscape:connector-curvature="0"
     sodipodi:nodetypes="ccccc" />
  <path
     style="fill:#868686;fill-opacity:1;fill-rule:nonzero;stroke:none"
     d="m 22,18.695311 -1.382813,1.304688 1.382813,0 0,-1.304688 z"
     id="path3899"
     inkscape:connector-curvature="0" />
  <path
     style="fill:#868686;fill-opacity:1;fill-rule:nonzero;stroke:none"
     d="M 18.492187,21.999999 16.371093,24 22,24 l 0,-2.000001 -3.507813,0 z"
     id="path3901"
     inkscape:connector-curvature="0" />
  <g
     id="g34"
     transform="matrix(2.0000002,0,0,2.0000002,-2.5538464e-6,-64.000007)" />
  <path
     style="fill:#868686;fill-opacity:1;fill-rule:nonzero;stroke:none"
     d="m 18.492187,9.9999985 2.125,2.0000005 1.382813,0 0,-2.0000005 -3.507813,0 z"
     id="path3899-5"
     inkscape:connector-curvature="0" />
  <path
     inkscape:connector-curvature="0"
     style="fill:#859900;fill-opacity:1"
     d="m 22,15.999999 -10,-9.9999988 0,6.0000008 -10,0 0,7.999998 10,0 L 12,26 Z"
     id="path4" />
</svg>

<svg xmlns="http://www.w3.org/2000/svg" viewBox="0 0 32 32">
 <path d="m 26 6 c 2 0 2 0 2 2 l 0 20 c 0 2 0 2 -2 2 l -20 0 c -2 0 -2 0 -2 -2 l 0 -20 c 0 -2 0 -2 2 -2" style="fill:#e6b07f;fill-opacity:1;stroke:none;fill-rule:evenodd"/>
 <path d="m 24 6 -16 0 l 0 20 16 0" style="fill:#fff;fill-opacity:1;stroke:none;fill-rule:nonzero"/>
 <path d="m 10 2 0 6 12 0 0 -6 z" style="fill:#aaa;fill-opacity:1;stroke:none;fill-rule:nonzero"/>
 <path d="m 22 18.695 -1.383 1.305 1.383 0 0 -1.305 z" style="fill:#868686;fill-opacity:1;stroke:none;fill-rule:nonzero"/>
 <path d="m 18.492 22 -2.121 2 5.629 0 l 0 -2 -3.508 0 z" style="fill:#868686;fill-opacity:1;stroke:none;fill-rule:nonzero"/>
 <path d="m 18.492 10 2.125 2 1.383 0 0 -2 -3.508 0 z" style="fill:#868686;fill-opacity:1;stroke:none;fill-rule:nonzero"/>
 <path d="m 22 16 -10 -10 0 6 -10 0 0 8 10 0 l 0 6" style="fill:#859900;fill-opacity:1"/>
</svg>
